assets/img/ticon23.svg

<svg width="64" height="64" viewBox="0 0 64 64" fill="none" xmlns="http://www.w3.org/2000/svg">
<circle cx="32" cy="32" r="32" fill="#F5F5F6"/>
<rect x="17" y="26" width="7" height="17" rx="1" stroke="#818893" stroke-width="2"/>
<path d="M30.5 27.0377H31.2448L31.4581 26.3241L34.0315 17.7136C34.1581 17.2902 34.5477 17 34.9897 17L36.5486 17L37.0012 26.0875L37.0486 27.0377H38H45.765C46.3611 27.0377 46.8248 27.556 46.7588 28.1484L45.2042 42.1107C45.1478 42.617 44.7198 43 44.2103 43H30C29.4477 43 29 42.5523 29 42V28.0377C29 27.4855 29.4477 27.0377 30 27.0377H30.5Z" stroke="#818893" stroke-width="2"/>
</svg>

<svg width="64" height="64" fill="none" xmlns="http://www.w3.org/2000/svg"><circle cx="32" cy="32" r="32" fill="#F5F5F6"/><rect x="17" y="26" width="7" height="17" rx="1" stroke="#818893" stroke-width="2"/><path d="M30.5 27.038h.745l.213-.714 2.574-8.61A1 1 0 0134.99 17h1.559L37 26.087l.048.95h8.716a1 1 0 01.994 1.111l-1.555 13.963a1 1 0 01-.994.889H30a1 1 0 01-1-1V28.038a1 1 0 011-1h.5z" stroke="#818893" stroke-width="2"/></svg>
